dist/img/calendar.svg

<svg width="18" height="19" viewBox="0 0 18 19" fill="none" xmlns="http://www.w3.org/2000/svg">
<path d="M6.35816 10.3311C6.35816 10.1055 6.17524 9.92285 5.94955 9.92285H4.52363C4.29819 9.92285 4.11523 10.1055 4.11523 10.3311V11.7568C4.11523 11.9826 4.29819 12.1654 4.52363 12.1654H5.94955C6.17524 12.1654 6.35816 11.9826 6.35816 11.7568V10.3311Z" fill="#9F9F9F"/>
<path d="M9.92045 10.3311C9.92045 10.1055 9.73749 9.92285 9.51224 9.92285H8.08613C7.86069 9.92285 7.67773 10.1055 7.67773 10.3311V11.7568C7.67773 11.9826 7.86069 12.1654 8.08613 12.1654H9.51224C9.73749 12.1654 9.92045 11.9826 9.92045 11.7568V10.3311Z" fill="#9F9F9F"/>
<path d="M13.488 10.3311C13.488 10.1055 13.3051 9.92285 13.0796 9.92285H11.6537C11.428 9.92285 11.2451 10.1055 11.2451 10.3311V11.7568C11.2451 11.9826 11.428 12.1654 11.6537 12.1654H13.0796C13.3051 12.1654 13.488 11.9826 13.488 11.7568V10.3311Z" fill="#9F9F9F"/>
<path d="M6.35816 13.8962C6.35816 13.6703 6.17524 13.4878 5.94955 13.4878H4.52363C4.29819 13.4878 4.11523 13.6703 4.11523 13.8962V15.3217C4.11523 15.5474 4.29819 15.7301 4.52363 15.7301H5.94955C6.17524 15.7301 6.35816 15.5473 6.35816 15.3217V13.8962Z" fill="#9F9F9F"/>
<path d="M9.92045 13.8962C9.92045 13.6703 9.73749 13.4878 9.51224 13.4878H8.08613C7.86069 13.4878 7.67773 13.6703 7.67773 13.8962V15.3217C7.67773 15.5474 7.86069 15.7301 8.08613 15.7301H9.51224C9.73749 15.7301 9.92045 15.5473 9.92045 15.3217V13.8962Z" fill="#9F9F9F"/>
<path d="M13.488 13.8962C13.488 13.6703 13.3051 13.4878 13.0798 13.4878H11.6537C11.428 13.4878 11.2451 13.6703 11.2451 13.8962V15.3217C11.2451 15.5474 11.428 15.7301 11.6537 15.7301H13.0798C13.3051 15.7301 13.488 15.5473 13.488 15.3217V13.8962Z" fill="#9F9F9F"/>
<path d="M16.0365 2.40528V4.58297C16.0365 5.56727 15.238 6.36045 14.2538 6.36045H13.1293C12.1451 6.36045 11.336 5.56727 11.336 4.58297V2.39746H6.26736V4.58297C6.26736 5.56727 5.45831 6.36045 4.47424 6.36045H3.34948C2.36537 6.36045 1.5669 5.56727 1.5669 4.58297V2.40528C0.706781 2.43121 0 3.14293 0 4.01773V16.78C0 17.6713 0.722381 18.4033 1.61363 18.4033H15.9897C16.8796 18.4033 17.6033 17.6698 17.6033 16.78V4.01773C17.6033 3.14293 16.8966 2.43121 16.0365 2.40528ZM15.5142 15.9853C15.5142 16.3705 15.2019 16.6829 14.8166 16.6829H2.75606C2.37075 16.6829 2.05846 16.3705 2.05846 15.9853V9.39311C2.05846 9.0078 2.37071 8.69532 2.75606 8.69532H14.8165C15.2018 8.69532 15.5141 9.0078 15.5141 9.39311L15.5142 15.9853Z" fill="#9F9F9F"/>
<path d="M3.3438 5.1926H4.45613C4.79376 5.1926 5.06751 4.91925 5.06751 4.58163V1.01158C5.06751 0.67392 4.79376 0.400391 4.45613 0.400391H3.3438C3.00614 0.400391 2.73242 0.67392 2.73242 1.01158V4.58163C2.73242 4.91925 3.00614 5.1926 3.3438 5.1926Z" fill="#9F9F9F"/>
<path d="M13.1172 5.1926H14.2295C14.5669 5.1926 14.8407 4.91925 14.8407 4.58163V1.01158C14.8407 0.67392 14.567 0.400391 14.2295 0.400391H13.1172C12.7796 0.400391 12.5059 0.67392 12.5059 1.01158V4.58163C12.5059 4.91925 12.7796 5.1926 13.1172 5.1926Z" fill="#9F9F9F"/>
</svg>

<svg width="18" height="19" fill="none" xmlns="http://www.w3.org/2000/svg"><path d="M6.358 10.331a.408.408 0 00-.408-.408H4.524a.408.408 0 00-.409.408v1.426c0 .226.183.408.409.408H5.95a.409.409 0 00.408-.408V10.33zm3.562 0a.408.408 0 00-.408-.408H8.086a.408.408 0 00-.408.408v1.426c0 .226.183.408.408.408h1.426a.408.408 0 00.408-.408V10.33zm3.568 0a.408.408 0 00-.408-.408h-1.426a.408.408 0 00-.409.408v1.426c0 .226.183.408.409.408h1.426a.408.408 0 00.408-.408V10.33zm-7.13 3.565a.408.408 0 00-.408-.408H4.524a.408.408 0 00-.409.408v1.426c0 .225.183.408.409.408H5.95a.408.408 0 00.408-.408v-1.426zm3.562 0a.408.408 0 00-.408-.408H8.086a.408.408 0 00-.408.408v1.426c0 .225.183.408.408.408h1.426a.408.408 0 00.408-.408v-1.426zm3.568 0a.408.408 0 00-.408-.408h-1.426a.408.408 0 00-.409.408v1.426c0 .225.183.408.409.408h1.426a.408.408 0 00.408-.408v-1.426z" fill="#9F9F9F"/><path d="M16.037 2.405v2.178c0 .984-.799 1.777-1.783 1.777h-1.125a1.788 1.788 0 01-1.793-1.777V2.397H6.267v2.186c0 .984-.809 1.777-1.793 1.777H3.35a1.779 1.779 0 01-1.782-1.777V2.405A1.621 1.621 0 000 4.018V16.78c0 .891.722 1.623 1.614 1.623H15.99c.89 0 1.613-.733 1.613-1.623V4.018a1.62 1.62 0 00-1.567-1.613zm-.523 13.58a.698.698 0 01-.697.698H2.757a.698.698 0 01-.699-.698V9.393c0-.385.313-.698.698-.698h12.06c.386 0 .698.313.698.698v6.592z" fill="#9F9F9F"/><path d="M3.344 5.193h1.112a.611.611 0 00.612-.611v-3.57A.611.611 0 004.456.4H3.344a.611.611 0 00-.612.612v3.57c0 .337.274.61.612.61zm9.773 0h1.112a.611.611 0 00.612-.611v-3.57A.611.611 0 0014.23.4h-1.113a.611.611 0 00-.611.612v3.57c0 .337.274.61.611.61z" fill="#9F9F9F"/></svg>
